X: 25704
T: Mary And Me
R: reel
M: 4/4
K: Gminor
|:G2 FA G3 F|DGGD FDCD|(3GFG FA GAcd|fgaf g3a|
gd (3ddd fdcA|c2 dA cAFD|G,2 CF dcDE|FcAF G4:|
|:(3gab ag f3 a|gdd=e fdcA|(3bag gf dcAc|(3edc cA F3 D|
G2 DG (3Bcd cA|G2 cd (3fga gf|g2 Bg dcDE|FcAF G4:|
|:BGAG GFD=E|F2 (3=EFG FAcA|BGAG GFDf|g2 (3fga g3 f|
dbag fdcA|GBAG FDCA,|G,2 CF dcD=E|FcAF G4:|

